SVG-Icons/Technical/Grafana/unify-icon.svg

<svg xmlns="http://www.w3.org/2000/svg" fill="none" viewBox="0 0 38 40"><ellipse cx="18.601" cy="20" fill="#FFEDC9" rx="18.601" ry="20"/><path fill="#FFDD98" d="M8 10h21v5H8z"/><path stroke="#FFBD3C" stroke-linecap="round" stroke-linejoin="round" stroke-width="1.5" d="M8 11.5c0-.8.7-1.5 1.5-1.5h18c.8 0 1.5.7 1.5 1.5V28c0 .8-.7 1.5-1.5 1.5h-18c-.8 0-1.5-.7-1.5-1.5V11.5v0ZM8 14.5h21"/><path fill="#FFDD98" stroke="#FFBD3C" stroke-linecap="round" stroke-linejoin="round" stroke-width="1.5" d="M11 18.3c0-.4.3-.8.8-.8h4.4c.4 0 .8.3.8.8v4.5c0 .4-.3.8-.8.8h-4.5c-.4 0-.8-.3-.8-.8v-4.5h.1Z"/><path stroke="#FFBD3C" stroke-linecap="round" stroke-linejoin="round" stroke-width="1.5" d="M11 26.5h6"/><path fill="#FFDD98" stroke="#FFBD3C" stroke-linecap="round" stroke-linejoin="round" stroke-width="1.5" d="M20 18.3c0-.4.3-.8.8-.8h4.4c.4 0 .8.3.8.8v7.5c0 .4-.3.8-.8.8h-4.5c-.4 0-.8-.3-.8-.8v-7.5h.1Z"/><path stroke="#FFBD3C" stroke-linecap="round" stroke-linejoin="round" stroke-width="1.5" d="M20 22.1h6"/></svg>

<svg width="40" height="40" viewBox="0 0 38 40" fill="none" xmlns="http://www.w3.org/2000/svg">
<ellipse cx="18.6014" cy="20" rx="18.6014" ry="20" fill="#FFEDC9"/>
<rect x="8" y="10" width="21" height="5" fill="#FFDD98"/>
<path d="M8 11.5C8 10.7 8.7 10 9.5 10H27.5C28.3 10 29 10.7 29 11.5V28C29 28.8 28.3 29.5 27.5 29.5H9.5C8.7 29.5 8 28.8 8 28V11.5V11.5Z" stroke="#FFBD3C" stroke-width="1.5" stroke-linecap="round" stroke-linejoin="round"/>
<path d="M8 14.5H29" stroke="#FFBD3C" stroke-width="1.5" stroke-linecap="round" stroke-linejoin="round"/>
<path d="M11 18.3C11 17.9 11.3 17.5 11.8 17.5H16.2C16.6 17.5 17 17.8 17 18.3V22.8C17 23.2 16.7 23.6 16.2 23.6H11.7C11.3 23.6 10.9 23.3 10.9 22.8V18.3H11Z" fill="#FFDD98" stroke="#FFBD3C" stroke-width="1.5" stroke-linecap="round" stroke-linejoin="round"/>
<path d="M11 26.5H17" stroke="#FFBD3C" stroke-width="1.5" stroke-linecap="round" stroke-linejoin="round"/>
<path d="M20 18.3C20 17.9 20.3 17.5 20.8 17.5H25.2C25.6 17.5 26 17.8 26 18.3V25.8C26 26.2 25.7 26.6 25.2 26.6H20.7C20.3 26.6 19.9 26.3 19.9 25.8V18.3H20Z" fill="#FFDD98" stroke="#FFBD3C" stroke-width="1.5" stroke-linecap="round" stroke-linejoin="round"/>
<path d="M20 22.1H26" stroke="#FFBD3C" stroke-width="1.5" stroke-linecap="round" stroke-linejoin="round"/>
</svg>
